packages/tokens/icons/browser2/size32Px.svg

<svg viewBox="0 0 32 32" fill="none" xmlns="http://www.w3.org/2000/svg" width="1em" height="1em"><line x1="3" y1="13.5" x2="25" y2="13.5" stroke="currentColor"/><circle cx="4.5" cy="11.5" r="0.25" stroke="currentColor" stroke-width="0.5"/><circle cx="6.5" cy="11.5" r="0.25" stroke="currentColor" stroke-width="0.5"/><circle cx="8.5" cy="11.5" r="0.25" stroke="currentColor" stroke-width="0.5"/><path d="M2.5 11C2.5 10.1716 3.17157 9.5 4 9.5L24 9.5C24.8284 9.5 25.5 10.1716 25.5 11V24C25.5 24.8284 24.8284 25.5 24 25.5H4C3.17157 25.5 2.5 24.8284 2.5 24L2.5 11Z" stroke="currentColor"/><circle cx="9.5" cy="6.5" r="0.25" stroke="currentColor" stroke-width="0.5"/><circle cx="11.5" cy="6.5" r="0.25" stroke="currentColor" stroke-width="0.5"/><circle cx="13.5" cy="6.5" r="0.25" stroke="currentColor" stroke-width="0.5"/><path d="M7.5 7V6.5C7.5 5.39543 8.39543 4.5 9.5 4.5L27.5 4.5C28.6046 4.5 29.5 5.39543 29.5 6.5V19.5C29.5 20.0523 29.0523 20.5 28.5 20.5V20.5" stroke="currentColor" stroke-linecap="round"/></svg>

<svg xmlns="http://www.w3.org/2000/svg" fill="none" viewBox="0 0 32 32" width="1em" height="1em"><path stroke="currentColor" d="M3 13.5h22"/><circle cx="4.5" cy="11.5" r=".25" stroke="currentColor" stroke-width=".5"/><circle cx="6.5" cy="11.5" r=".25" stroke="currentColor" stroke-width=".5"/><circle cx="8.5" cy="11.5" r=".25" stroke="currentColor" stroke-width=".5"/><path stroke="currentColor" d="M2.5 11A1.5 1.5 0 0 1 4 9.5h20a1.5 1.5 0 0 1 1.5 1.5v13a1.5 1.5 0 0 1-1.5 1.5H4A1.5 1.5 0 0 1 2.5 24V11Z"/><circle cx="9.5" cy="6.5" r=".25" stroke="currentColor" stroke-width=".5"/><circle cx="11.5" cy="6.5" r=".25" stroke="currentColor" stroke-width=".5"/><circle cx="13.5" cy="6.5" r=".25" stroke="currentColor" stroke-width=".5"/><path stroke="currentColor" stroke-linecap="round" d="M7.5 7v-.5a2 2 0 0 1 2-2h18a2 2 0 0 1 2 2v13a1 1 0 0 1-1 1v0"/></svg>
